X:283
T:Paddy Ryan's Dream
Z: id:dc-reel-263
M:C
L:1/8
K:A Minor
cB|AEE2 cABG|EGDC B,CDB,|A,3B, CDEG|cABG ABcB|!
AEE2 cABG|EGDC B,CDB,|A,3B, CDEG|cABG A2:|!
cB|Aaa^g aecA|Ggg^f gdBG|Aaa^g aefd|ecdB cABG|!
Aaa^g aecA|Ggg^f gdBG|AcBd cedf|edcB A2:|!

